images/server-network.svg

<svg xmlns="http://www.w3.org/2000/svg" width="24" height="24"><path d="M13 18h1a1 1 0 0 1 1 1h7v2h-7a1 1 0 0 1-1 1h-4a1 1 0 0 1-1-1H2v-2h7a1 1 0 0 1 1-1h1v-2H4a1 1 0 0 1-1-1v-4a1 1 0 0 1 1-1h16a1 1 0 0 1 1 1v4a1 1 0 0 1-1 1h-7v2M4 2h16a1 1 0 0 1 1 1v4a1 1 0 0 1-1 1H4a1 1 0 0 1-1-1V3a1 1 0 0 1 1-1m5 4h1V4H9v2m0 8h1v-2H9v2M5 4v2h2V4H5m0 8v2h2v-2H5z"/></svg>

<?xml version="1.0" encoding="UTF-8"?><!DOCTYPE svg PUBLIC "-//W3C//DTD SVG 1.1//EN" "http://www.w3.org/Graphics/SVG/1.1/DTD/svg11.dtd"><svg xmlns="http://www.w3.org/2000/svg" xmlns:xlink="http://www.w3.org/1999/xlink" version="1.1" width="24" height="24" viewBox="0 0 24 24"><path d="M13,18H14A1,1 0 0,1 15,19H22V21H15A1,1 0 0,1 14,22H10A1,1 0 0,1 9,21H2V19H9A1,1 0 0,1 10,18H11V16H4A1,1 0 0,1 3,15V11A1,1 0 0,1 4,10H20A1,1 0 0,1 21,11V15A1,1 0 0,1 20,16H13V18M4,2H20A1,1 0 0,1 21,3V7A1,1 0 0,1 20,8H4A1,1 0 0,1 3,7V3A1,1 0 0,1 4,2M9,6H10V4H9V6M9,14H10V12H9V14M5,4V6H7V4H5M5,12V14H7V12H5Z" /></svg>
